svg/300/rounded/signal_cellular_alt-fill.svg

<svg xmlns="http://www.w3.org/2000/svg" width="48" height="48" viewBox="0 -960 960 960"><path d="M258.707-180.001q-16.244 0-27.475-11.33-11.231-11.33-11.231-27.516v-122.306q0-16.186 11.371-27.516 11.371-11.33 27.615-11.33t27.475 11.33q11.23 11.33 11.23 27.516v122.306q0 16.186-11.371 27.516-11.37 11.33-27.614 11.33Zm243.461 0q-16.244 0-27.475-11.33-11.23-11.33-11.23-27.516v-322.306q0-16.186 11.37-27.516 11.371-11.33 27.615-11.33t27.475 11.33q11.23 11.33 11.23 27.516v322.306q0 16.186-11.371 27.516-11.37 11.33-27.614 11.33Zm238.845 0q-16.244 0-27.475-11.33-11.23-11.33-11.23-27.516v-522.306q0-16.186 11.371-27.516 11.37-11.33 27.615-11.33 16.243 0 27.474 11.33 11.231 11.33 11.231 27.516v522.306q0 16.186-11.371 27.516-11.371 11.33-27.615 11.33Z"/></svg>

<svg xmlns="http://www.w3.org/2000/svg" width="48" height="48" viewBox="0 -960 960 960"><path d="M258.71-180q-16.25 0-27.48-11.33T220-218.85v-122.3q0-16.19 11.37-27.52Q242.74-380 258.99-380q16.24 0 27.47 11.33t11.23 27.52v122.3q0 16.19-11.37 27.52Q274.95-180 258.71-180Zm243.46 0q-16.25 0-27.48-11.33t-11.23-27.52v-322.3q0-16.19 11.37-27.52Q486.2-580 502.45-580q16.24 0 27.47 11.33t11.23 27.52v322.3q0 16.19-11.37 27.52Q518.41-180 502.17-180Zm238.84 0q-16.24 0-27.47-11.33t-11.23-27.52v-522.3q0-16.19 11.37-27.52Q725.05-780 741.29-780q16.25 0 27.48 11.33T780-741.15v522.3q0 16.19-11.37 27.52Q757.26-180 741.01-180Z"/></svg>
